X:28
T:Ez a kislány
O: Lövéte
Q: Parlando
M:none
L:1/4
K:C
F/G/ A/A F/G/ A/ A | d<d c2 | 
G/G/G/G/ G/G/D/D/ | A F F/ z/ z | 
d c A F | G/G/ c _B/ A/G/ D |
G/G/F/F/ C/C/F/G/ | D<D D/z/ z | 

